!!!OTL: No_111_Come,_Let_Us_Sing.krn
!!!REG: Great_Lakes
!!!LANG: Non-Tone
!!!LING_GROUP: Algonquin
!!!SOCIAL_FUNCTION: love songs
**kern
*staff1
*clefG2
*k[b-e-a-d-g-c-]
*M2/4
16ee-\
=1
4.ee-\
16a-/LL
16ee-/JJ
=2||
*M3/4
2a-/
4ff\
=3
4ee-\
[2b-\
=4||
*M2/4
4..b-\]
16ee-\
=5
4.ee-\
16b-\LL
16ee-\JJ
=6
(4.a-/
8e-/)
=7
4a-/
4g-/
=8
[2e-/
=9||
*M3/4
2e-/]
8.b-\L
16b-\Jk
=10
4..ee-\
16ff\
4ee-\
=11
4..b-\
16e-/
4e-/
=12
2a-/
8b-/L
8a-/J
=13
4g-/
[2e-/
=14
2e-/]
4r
==
*-
